dist/svgs/devui-icons/op/exit-loop.svg

<?xml version="1.0" encoding="UTF-8"?>
<svg width="16px" height="16px" viewBox="0 0 16 16" version="1.1" xmlns="http://www.w3.org/2000/svg" xmlns:xlink="http://www.w3.org/1999/xlink">
    <title>操作/退出循环</title>
    <desc>Created with Sketch.</desc>
    <g id="操作/退出循环" stroke="none" stroke-width="1" fill="none" fill-rule="evenodd">
        <g fill-rule="nonzero">
            <path d="M12.1075139,11.4004071 C13.2435763,10.6948002 14,9.43573621 14,8 C14,5.99682804 12.5275103,4.33757448 10.605881,4.04558928 L12,3 L10.7243743,2.04328076 C13.6965037,2.40093454 16,4.93146207 16,8 C16,9.98670188 15.0344163,11.7478796 13.5469444,12.8398376 L15.3535534,14.6464466 L14.6464466,15.3535534 L0.646446609,1.35355339 L1.35355339,0.646446609 L3.33163225,2.62452547 C4.13536095,2.22478777 5.04142947,2 6,2 L7,2 L7,0 L11,3 L7,6 L7,4 L6,4 C5.60727301,4 5.22776508,4.05659751 4.86918775,4.16208097 L12.1075139,11.4004071 L12.1075139,11.4004071 Z M8.78781695,10.9091373 L11.6491844,13.7705047 C11.1252054,13.9199727 10.5719484,14 10,14 L10,16 L6,13 L8.78781695,10.9091373 L8.78781695,10.9091373 Z M3.1115592,5.23287954 C2.42305037,5.95138305 2,6.92628717 2,8 C2,10.209139 3.790861,12 6,12 L6.33333333,12 L5,13 L6.33333333,14 L6,14 C2.6862915,14 4.05812251e-16,11.3137085 0,8 C-1.99127403e-16,6.37400136 0.646792371,4.89906918 1.69713011,3.81845045 L3.1115592,5.23287954 L3.1115592,5.23287954 Z" id="形状" fill="#293040"></path>
        </g>
    </g>
</svg>

<svg xmlns="http://www.w3.org/2000/svg" viewBox="0 0 16 16"><path d="M12.108 11.4a4.001 4.001 0 00-1.502-7.355L12 3l-1.276-.957a6.001 6.001 0 012.823 10.797l1.807 1.806-.708.708-14-14 .708-.708 1.978 1.979A5.97 5.97 0 016 2h1V0l4 3-4 3V4H6c-.393 0-.772.057-1.13.162l7.238 7.238zm-3.32-.49l2.861 2.86c-.524.15-1.077.23-1.649.23v2l-4-3 2.788-2.09zM3.112 5.232A4 4 0 006 12h.333L5 13l1.333 1H6A6 6 0 011.697 3.818l1.415 1.415z"/></svg>
